images/new.svg

<svg width="80" height="80" viewBox="0 0 80 80" fill="none" xmlns="http://www.w3.org/2000/svg">
<circle cx="40" cy="40" r="40" fill="#FFC107" fill-opacity="0.1"/>
<path d="M53.2962 37.7831C52.8345 37.4427 52.2527 37.0174 52.1823 36.7396C52.2119 36.2018 52.3654 35.6782 52.631 35.2096C53.038 34.2756 53.458 33.3078 52.991 32.5029C52.5241 31.6981 51.4622 31.5677 50.4409 31.4594C49.9115 31.4558 49.39 31.3313 48.916 31.0955C48.6798 30.6199 48.5557 30.0964 48.5534 29.5654C48.4386 28.5441 48.3199 27.4875 47.5099 27.0153C46.6998 26.5431 45.7306 26.9566 44.7967 27.3688C44.3276 27.6342 43.8036 27.7877 43.2654 27.8175C42.9837 27.7419 42.5597 27.1653 42.2219 26.7035C41.6297 25.9052 40.9631 25 40.0005 25C39.0378 25 38.3713 25.9052 37.783 26.7035C37.4412 27.1666 37.0173 27.7471 36.7394 27.8188C36.2017 27.7864 35.6782 27.633 35.2081 27.37C34.2689 26.9565 33.3011 26.5444 32.4989 27.0087C31.6967 27.4731 31.5623 28.5375 31.4475 29.5653C31.4438 30.0945 31.3198 30.616 31.0849 31.0902C30.6119 31.3227 30.0923 31.4449 29.5653 31.4476C28.5427 31.5623 27.4847 31.6811 27.0139 32.4911C26.543 33.3011 26.9566 34.2691 27.3688 35.2044C27.6352 35.6745 27.7888 36.2 27.8175 36.7396C27.7419 37.0214 27.1653 37.4466 26.7035 37.7831C25.9052 38.3701 25 39.038 25 40.0006C25 40.9633 25.9052 41.6312 26.7049 42.2181C27.1666 42.5586 27.7484 42.9838 27.8188 43.2617C27.7892 43.7995 27.6357 44.3231 27.3701 44.7917C26.9631 45.7257 26.5431 46.6935 27.0101 47.4984C27.477 48.3032 28.5389 48.4336 29.5602 48.5419C30.0896 48.5454 30.6111 48.6699 31.0851 48.9058C31.3213 49.3814 31.4454 49.9049 31.4477 50.4359C31.5625 51.4572 31.6812 52.5138 32.4912 52.986C33.3013 53.4582 34.2626 53.033 35.1979 52.626C35.6717 52.3635 36.1988 52.2119 36.7397 52.1825C37.0214 52.2581 37.4453 52.8347 37.7832 53.2965C38.3715 54.0948 39.0381 55 40.0007 55C40.9633 55 41.6299 54.0948 42.2182 53.2965C42.5599 52.8334 42.9839 52.2529 43.2617 52.1812C43.7998 52.2117 44.3237 52.3651 44.7931 52.63C45.727 53.0369 46.6949 53.4544 47.4984 52.9913C48.3018 52.5282 48.4349 51.4625 48.5497 50.4399C48.5535 49.9107 48.6775 49.3892 48.9124 48.915C49.3862 48.6806 49.9072 48.557 50.4359 48.5537C51.4585 48.4389 52.5164 48.3202 52.9873 47.5102C53.4581 46.7001 53.0329 45.7388 52.6273 44.8035C52.3617 44.331 52.2099 43.8031 52.1838 43.2617C52.2594 42.98 52.836 42.5547 53.2978 42.2182C54.0961 41.6299 55.0026 40.9621 55.0026 40.0007C55.0026 39.0393 54.0958 38.3701 53.2962 37.7831Z" fill="#FFC107"/>
<path d="M36.0873 43.2617C35.8821 43.2617 35.6887 43.1651 35.5656 43.0008L32.8263 39.3486V42.6095C32.8263 42.9697 32.5343 43.2617 32.1741 43.2617C31.8139 43.2617 31.5219 42.9697 31.5219 42.6095V37.392C31.5219 37.0318 31.8139 36.7397 32.1741 36.7397C32.3794 36.7397 32.5727 36.8364 32.6959 37.0006L35.4351 40.6529V37.392C35.4351 37.0318 35.7271 36.7397 36.0873 36.7397C36.4475 36.7397 36.7395 37.0318 36.7395 37.392V42.6095C36.7393 42.8901 36.5596 43.1391 36.2934 43.2278C36.227 43.2503 36.1574 43.2617 36.0873 43.2617Z" fill="#FAFAFA"/>
<path d="M41.3049 43.2617H38.6961C38.3359 43.2617 38.0439 42.9697 38.0439 42.6095V37.392C38.0439 37.0318 38.3359 36.7397 38.6961 36.7397H41.3049C41.6651 36.7397 41.9571 37.0318 41.9571 37.392C41.9571 37.7522 41.6651 38.0442 41.3049 38.0442H39.3483V41.9574H41.3049C41.6651 41.9574 41.9571 42.2494 41.9571 42.6096C41.9571 42.9698 41.6651 43.2617 41.3049 43.2617Z" fill="#FAFAFA"/>
<path d="M41.3049 40.6528H38.6961C38.3359 40.6528 38.0439 40.3608 38.0439 40.0006C38.0439 39.6404 38.3359 39.3484 38.6961 39.3484H41.3049C41.6651 39.3484 41.9571 39.6404 41.9571 40.0006C41.9571 40.3608 41.6651 40.6528 41.3049 40.6528Z" fill="#FAFAFA"/>
<path d="M47.8268 43.2616C47.5458 43.262 47.2961 43.0822 47.2073 42.8155L46.5225 40.7584L45.8377 42.8155C45.7543 43.0969 45.486 43.2822 45.1933 43.2603C44.9036 43.2493 44.6559 43.0484 44.5854 42.7672L43.2811 37.5497C43.1939 37.1999 43.4068 36.8457 43.7565 36.7585C44.1063 36.6714 44.4605 36.8843 44.5477 37.234L45.3081 40.2785L45.9042 38.4901C46.0592 38.1483 46.4619 37.9968 46.8038 38.1518C46.9538 38.2199 47.074 38.3401 47.1421 38.4901L47.7382 40.2785L48.4986 37.234C48.5858 36.8843 48.94 36.6714 49.2898 36.7585C49.6395 36.8457 49.8524 37.1999 49.7652 37.5497L48.4608 42.7672C48.3903 43.0484 48.1426 43.2493 47.853 43.2603L47.8268 43.2616Z" fill="#FAFAFA"/>
</svg>

<svg xmlns="http://www.w3.org/2000/svg" width="80" height="80" fill="none"  xmlns:v="https://vecta.io/nano"><g fill="#ffc107"><circle cx="40" cy="40" r="40" fill-opacity=".1"/><path d="M53.296 37.783c-.462-.34-1.044-.766-1.114-1.043a3.49 3.49 0 0 1 .449-1.53c.407-.934.827-1.902.36-2.707s-1.529-.935-2.55-1.043c-.529-.004-1.051-.128-1.525-.364-.236-.476-.36-.999-.363-1.53-.115-1.021-.234-2.078-1.044-2.55s-1.779-.059-2.713.354c-.469.265-.993.419-1.531.449-.282-.076-.706-.652-1.044-1.114C41.63 25.905 40.963 25 40.001 25s-1.629.905-2.218 1.703c-.342.463-.766 1.044-1.044 1.115-.538-.032-1.061-.186-1.531-.449-.939-.414-1.907-.826-2.709-.361s-.937 1.529-1.051 2.557a3.49 3.49 0 0 1-.363 1.525c-.473.233-.993.355-1.52.357-1.023.115-2.081.233-2.551 1.044s-.057 1.778.355 2.713a3.49 3.49 0 0 1 .449 1.535c-.076.282-.652.707-1.114 1.043-.798.587-1.703 1.255-1.703 2.218s.905 1.631 1.705 2.218c.462.34 1.044.766 1.114 1.044a3.49 3.49 0 0 1-.449 1.53c-.407.934-.827 1.902-.36 2.707s1.529.935 2.55 1.044c.529.004 1.051.128 1.525.364.236.476.36.999.363 1.53.115 1.021.233 2.078 1.043 2.55s1.771.047 2.707-.36a3.58 3.58 0 0 1 1.542-.444c.282.076.706.652 1.044 1.114.588.798 1.255 1.703 2.218 1.703s1.629-.905 2.218-1.703c.342-.463.766-1.044 1.043-1.115a3.52 3.52 0 0 1 1.531.449c.934.407 1.902.824 2.705.361s.937-1.529 1.051-2.551a3.49 3.49 0 0 1 .363-1.525c.474-.234.995-.358 1.523-.361 1.023-.115 2.081-.233 2.551-1.044s.046-1.771-.36-2.707a3.49 3.49 0 0 1-.444-1.542c.076-.282.652-.707 1.114-1.043.798-.588 1.705-1.256 1.705-2.218s-.907-1.631-1.706-2.218z"/></g><g fill="#fafafa"><path d="M36.087 43.262a.65.65 0 0 1-.522-.261l-2.739-3.652v3.261a.652.652 0 1 1-1.304 0v-5.217a.65.65 0 0 1 1.174-.391l2.739 3.652v-3.261a.652.652 0 1 1 1.304 0v5.217a.65.65 0 0 1-.446.618.64.64 0 0 1-.206.034zm5.218 0h-2.609a.65.65 0 0 1-.652-.652v-5.217a.65.65 0 0 1 .652-.652h2.609a.652.652 0 1 1 0 1.304h-1.957v3.913h1.957a.652.652 0 1 1 0 1.304z"/><path d="M41.305 40.653h-2.609a.652.652 0 1 1 0-1.304h2.609a.652.652 0 1 1 0 1.304zm6.522 2.609a.65.65 0 0 1-.62-.446l-.685-2.057-.685 2.057c-.083.281-.352.467-.644.445a.65.65 0 0 1-.608-.493l-1.304-5.218c-.087-.35.126-.704.475-.791s.704.126.791.476l.76 3.044.596-1.788a.68.68 0 0 1 1.238 0l.596 1.788.76-3.044c.087-.35.441-.563.791-.476a.65.65 0 0 1 .475.791l-1.304 5.218a.65.65 0 0 1-.608.493l-.026.001z"/></g></svg>
